packages/icons/src/security-ci-step-inverse.svg

<svg fill="none" viewBox="0 0 40 41" xmlns="http://www.w3.org/2000/svg"><path clip-rule="evenodd" d="m14.0806 11.0019.001 4.5459h11.8387l-.0009-4.5458c0-3.24158-2.647-5.87538-5.9194-5.87538s-5.9193 2.63375-5.9194 5.87528zm12.8397 4.5459h4.0797c.5523 0 1 .4477 1 1v18.5788c0 .5523-.4477 1-1 1h-22c-.55228 0-1-.4477-1-1v-18.5788c0-.5523.44772-1 1-1h4.0816l-.001-4.5458c0-3.80035 3.1012-6.87538 6.9194-6.87538s6.9193 3.07487 6.9194 6.87518zm-17.9203 1v18.5788h22v-18.5788zm11.0007 4.257c-1.227 0-2.2158.9869-2.2158 2.1972 0 .6552.2886 1.2437.7496 1.6474.2851.2497.5372.632.5372 1.1007v3.8689c0 .1712.1406.3158.3214.3158h1.2152c.1808 0 .3214-.1446.3214-.3158v-3.8689c0-.4687.2521-.8509.5372-1.1007.461-.4037.7497-.9922.7497-1.6474 0-1.2103-.9889-2.1972-2.2159-2.1972zm-3.2158 2.1972c0-1.769 1.443-3.1972 3.2158-3.1972s3.2159 1.4282 3.2159 3.1972c0 .9567-.4232 1.815-1.0908 2.3997-.1413.1238-.1961.2525-.1961.3484v3.8689c0 .7299-.5948 1.3158-1.3214 1.3158h-1.2152c-.7265 0-1.3214-.5859-1.3214-1.3158v-3.8689c0-.0959-.0547-.2246-.1961-.3484-.6675-.5847-1.0907-1.443-1.0907-2.3997z" fill="#fff" fill-rule="evenodd"/></svg>

<svg viewBox="0 0 40 41" fill="none" xmlns="http://www.w3.org/2000/svg">
<path fill-rule="evenodd" clip-rule="evenodd" d="M14.0806 11.0019C14.0806 11.0019 14.0806 11.0019 14.0806 11.0019L14.0816 15.5478H25.9203L25.9194 11.002C25.9194 7.76042 23.2724 5.12662 20 5.12662C16.7276 5.12662 14.0807 7.76037 14.0806 11.0019ZM26.9203 15.5478H31C31.5523 15.5478 32 15.9955 32 16.5478V35.1266C32 35.6789 31.5523 36.1266 31 36.1266H9C8.44772 36.1266 8 35.6789 8 35.1266V16.5478C8 15.9955 8.44772 15.5478 9 15.5478H13.0816L13.0806 11.002C13.0806 7.20165 16.1818 4.12662 20 4.12662C23.8182 4.12662 26.9193 7.20149 26.9194 11.0018C26.9194 11.0018 26.9194 11.0018 26.9194 11.0018L26.9203 15.5478ZM9 16.5478V35.1266H31V16.5478H9ZM20.0007 20.8048C18.7737 20.8048 17.7849 21.7917 17.7849 23.002C17.7849 23.6572 18.0735 24.2457 18.5345 24.6494C18.8196 24.8991 19.0717 25.2814 19.0717 25.7501V29.619C19.0717 29.7902 19.2123 29.9348 19.3931 29.9348H20.6083C20.7891 29.9348 20.9297 29.7902 20.9297 29.619V25.7501C20.9297 25.2814 21.1818 24.8992 21.4669 24.6494C21.9279 24.2457 22.2166 23.6572 22.2166 23.002C22.2166 21.7917 21.2277 20.8048 20.0007 20.8048ZM16.7849 23.002C16.7849 21.233 18.2279 19.8048 20.0007 19.8048C21.7735 19.8048 23.2166 21.233 23.2166 23.002C23.2166 23.9587 22.7934 24.817 22.1258 25.4017C21.9845 25.5255 21.9297 25.6542 21.9297 25.7501V29.619C21.9297 30.3489 21.3349 30.9348 20.6083 30.9348H19.3931C18.6666 30.9348 18.0717 30.3489 18.0717 29.619V25.7501C18.0717 25.6542 18.017 25.5255 17.8756 25.4017C17.2081 24.817 16.7849 23.9587 16.7849 23.002Z" fill="white"/>
</svg>
